X:158
T:Christmas Day I' da Morning (Harmonized)
C:Arr: Bonnie Rideout
R:Jig
M:6/8
Q:180
K:D
V:1
"D"f2d f3|"A"e2d c2A|"G"B2G d2c|"Em"BG2 G3|
V:2
DFA d2A|c2B A2E|GFE B,CD|EB,C DCB,|
V:1
"A"e2f g2f|e2d c2B|ABA ABc|"D"d3 d3|
V:2
A,3G,3|A,3 A,3|CDC CDE|F2E D3|
V:1
"D"fa2 a3|"A"e2d c2A|"G"B2G d2c|"Em"BG2 G3|
V:2
D3 DF2|EFG A2c|DBG D2D|"Em" GB2 B3|
V:1
"A"e2 f g2f|e2d c2B|ABA ABc|"D"d3 d3||
V:2
A3G3|E3 E3|CDC CDE|F2E D3||
V:1
"Em"e3 ((4edef)|g3 B3|"A"ABA A2A|"G"B2c dcB|
V:2
G3 G3|E3 D3|CB,C A,B,C|D2E F3|
V:1
"Em"e3 ((4edef)|g3 B2B|"A"A2e "G"d2B|"A"A6|
V:2
((4GFGA) G3|E3 D3|CB,A, B,CD|E6|
V:1
"Em"e3 ((4edef)|g3 B3|"A"ABA A2A|"G"B2c dcB|
V:2
G3 G3|E3 D3|CDC A,B,C|D2E F3|
V:1
"Em"e3 ((4edef)|g3 B2B|"A"A2e "G"d2B|"A"A6|]
V:2
((4GFGA) G3|E3 D3|CB,A, B,CD|E6|]
